; G-Code generated by Simplify3D(R) Version 4.1.1
; Apr 21, 2019 at 7:21:27 PM
; Settings Summary
;   processName,Process1
;   applyToModels,Wire Clip,Wire Clip(2),Wire Clip(3),Wire Clip(4),Wire Clip(5),Wire Clip(6)
;   profileName,BCN3D Technologies Sigma (modified)
;   profileVersion,2019-04-18 01:31:47
;   baseProfile,
;   printMaterial,PETG
;   printQuality,Medium
;   printExtruders,Right Extruder Only
;   extruderName,Right Extruder,Left Extruder
;   extruderToolheadNumber,1,0
;   extruderDiameter,0.4,0.4
;   extruderAutoWidth,1,1
;   extruderWidth,0.48,0.48
;   extrusionMultiplier,0.95,0.95
;   extruderUseRetract,1,1
;   extruderRetractionDistance,4,6
;   extruderExtraRestartDistance,0,0
;   extruderRetractionZLift,0.3,0.3
;   extruderRetractionSpeed,1800,1800
;   extruderUseCoasting,0,0
;   extruderCoastingDistance,0.2,0.2
;   extruderUseWipe,1,1
;   extruderWipeDistance,3,3
;   primaryExtruder,0
;   layerHeight,0.2
;   topSolidLayers,3
;   bottomSolidLayers,3
;   perimeterOutlines,3
;   printPerimetersInsideOut,1
;   startPointOption,2
;   startPointOriginX,0
;   startPointOriginY,0
;   sequentialIslands,0
;   spiralVaseMode,0
;   firstLayerHeightPercentage,100
;   firstLayerWidthPercentage,120
;   firstLayerUnderspeed,0.5
;   useRaft,0
;   raftExtruder,0
;   raftTopLayers,2
;   raftBaseLayers,1
;   raftOffset,3
;   raftSeparationDistance,0.28
;   raftTopInfill,100
;   aboveRaftSpeedMultiplier,0.3
;   useSkirt,1
;   skirtExtruder,0
;   skirtLayers,1
;   skirtOutlines,4
;   skirtOffset,6
;   usePrimePillar,0
;   primePillarExtruder,999
;   primePillarWidth,15
;   primePillarLocation,7
;   primePillarSpeedMultiplier,0.4
;   useOozeShield,0
;   oozeShieldExtruder,999
;   oozeShieldOffset,3
;   oozeShieldOutlines,1
;   oozeShieldSidewallShape,1
;   oozeShieldSidewallAngle,30
;   oozeShieldSpeedMultiplier,0.5
;   infillExtruder,0
;   internalInfillPattern,Full Honeycomb
;   externalInfillPattern,Rectilinear
;   infillPercentage,15
;   outlineOverlapPercentage,20
;   infillExtrusionWidthPercentage,100
;   minInfillLength,5
;   infillLayerInterval,1
;   internalInfillAngles,0,120,-120
;   overlapInternalInfillAngles,0
;   externalInfillAngles,45,-45
;   generateSupport,1
;   supportExtruder,0
;   supportInfillPercentage,15
;   supportExtraInflation,0
;   supportBaseLayers,1
;   denseSupportExtruder,0
;   denseSupportLayers,2
;   denseSupportInfillPercentage,70
;   supportLayerInterval,1
;   supportHorizontalPartOffset,0.3
;   supportUpperSeparationLayers,2
;   supportLowerSeparationLayers,2
;   supportType,1
;   supportGridSpacing,1
;   maxOverhangAngle,45
;   supportAngles,0
;   temperatureName,Right Extruder,Left Extruder,Heated Bed
;   temperatureNumber,1,0,0
;   temperatureSetpointCount,2,1,1
;   temperatureSetpointLayers,1,2,1,1
;   temperatureSetpointTemperatures,260,255,0,80
;   temperatureStabilizeAtStartup,1,0,1
;   temperatureHeatedBed,0,0,1
;   fanLayers,1,2
;   fanSpeeds,0,80
;   blipFanToFullPower,0
;   adjustSpeedForCooling,1
;   minSpeedLayerTime,10
;   minCoolingSpeedSlowdown,30
;   increaseFanForCooling,1
;   minFanLayerTime,15
;   maxCoolingFanSpeed,93
;   increaseFanForBridging,1
;   bridgingFanSpeed,100
;   use5D,1
;   relativeEdistances,0
;   allowEaxisZeroing,1
;   independentExtruderAxes,0
;   includeM10123,0
;   stickySupport,1
;   applyToolheadOffsets,0
;   gcodeXoffset,0
;   gcodeYoffset,0
;   gcodeZoffset,0
;   overrideMachineDefinition,1
;   machineTypeOverride,0
;   strokeXoverride,210
;   strokeYoverride,297
;   strokeZoverride,210
;   originOffsetXoverride,0
;   originOffsetYoverride,0
;   originOffsetZoverride,0
;   homeXdirOverride,-1
;   homeYdirOverride,-1
;   homeZdirOverride,-1
;   flipXoverride,1
;   flipYoverride,-1
;   flipZoverride,1
;   toolheadOffsets,0,0|-40,0|0,0|0,0|0,0|0,0
;   overrideFirmwareConfiguration,1
;   firmwareTypeOverride,RepRap (Marlin/Repetier/Sprinter)
;   GPXconfigOverride,r2
;   baudRateOverride,250000
;   overridePrinterModels,1
;   printerModelsOverride
;   startingGcode,;start starting gcode,,;GLED: 11 - RLED: 12 - BLED: 13,M42 P11 S0		;purple light during startup,M42 P12 S255	                        ,M42 P13 S255,,M280 P0 S160 		;BLTouch alarm release,G4 P100		;delay for BLTouch,,T0		;switch to tool 0 for homing,,G28		;home axes,,M4 P100		;reset BLTouch,M28 P0 S160,G29		;bed leveling (bilinear),;M420 S1		;bed leveling (UBL),;G29 L0,,G1 X-48 F1800		;move left extruder over bucket,,G92 X254.5		;switch to tool 1,T1,,G1 E4 F48		;initial purge,G92 E0,,;G92 X-48		;switch back to T0 before starting print,;T0,,M42 P11 S255		;white light for easier inspection during printing,M42 P12 S255,M42 P13 S255,,;end starting gcode
;   layerChangeGcode,
;   retractionGcode,
;   toolChangeGcode,
;   endingGcode,;start ending gcode,,M104 S0 T0			;left extruder heater off,M104 S0 T1			;right extruder heater off,M140 S0			;bed off,,M106 P0 S0			;turn layer fans off,M106 P1 S0,,G28 X Y			;Home X and Y-axes,M84			;steppers off,,M42 P11 S255			;completed print - green light,M42 P12 S0,M42 P13 S0,,;end ending gcode
;   exportFileFormat,gcode
;   celebration,0
;   celebrationSong,Random Song
;   postProcessing,{TOOL1REPLACE "M106 S" "M106 P1 S"}
;   defaultSpeed,3000
;   outlineUnderspeed,0.65
;   solidInfillUnderspeed,0.85
;   supportUnderspeed,0.9
;   rapidXYspeed,7800
;   rapidZspeed,720
;   minBridgingArea,50
;   bridgingExtraInflation,0
;   bridgingExtrusionMultiplier,0.75
;   bridgingSpeedMultiplier,1.1
;   useFixedBridgingAngle,0
;   fixedBridgingAngle,0
;   applyBridgingToPerimeters,0
;   filamentDiameters,2.85|2.85|2.85|2.85|2.85|2.85
;   filamentPricesPerKg,23.15|23.95|23.95|23.95|23.95|23.95
;   filamentDensities,1.25|1.25|1.25|1.25|1.25|1.25
;   useMinPrintHeight,0
;   minPrintHeight,0
;   useMaxPrintHeight,0
;   maxPrintHeight,0
;   useDiaphragm,0
;   diaphragmLayerInterval,20
;   robustSlicing,1
;   mergeAllIntoSolid,0
;   onlyRetractWhenCrossingOutline,0
;   retractBetweenLayers,1
;   useRetractionMinTravel,0
;   retractionMinTravel,3
;   retractWhileWiping,1
;   onlyWipeOutlines,1
;   avoidCrossingOutline,0
;   maxMovementDetourFactor,3
;   toolChangeRetractionDistance,6
;   toolChangeExtraRestartDistance,7
;   toolChangeRetractionSpeed,600
;   externalThinWallType,0
;   internalThinWallType,2
;   thinWallAllowedOverlapPercentage,10
;   singleExtrusionMinLength,1
;   singleExtrusionMinPrintingWidthPercentage,50
;   singleExtrusionMaxPrintingWidthPercentage,200
;   singleExtrusionEndpointExtension,0.2
;   horizontalSizeCompensation,0
G90
M82
M106 S0
M140 S80
M190 S80
M104 S0 T0
M104 S260 T1
M109 S260 T1
;start starting gcode
;GLED: 11 - RLED: 12 - BLED: 13
M42 P11 S0		;purple light during startup
M42 P12 S255	                        
M42 P13 S255
M280 P0 S160 		;BLTouch alarm release
G4 P100		;delay for BLTouch
T0		;switch to tool 0 for homing
G28		;home axes
M4 P100		;reset BLTouch
M28 P0 S160
G29		;bed leveling (bilinear)
;M420 S1		;bed leveling (UBL)
;G29 L0
G1 X-48 F1800		;move left extruder over bucket
G92 X254.5		;switch to tool 1
T1
G1 E4 F48		;initial purge
G92 E0
;G92 X-48		;switch back to T0 before starting print
;T0
M42 P11 S255		;white light for easier inspection during printing
M42 P12 S255
M42 P13 S255
;end starting gcode
; process Process1
; layer 1, Z = 0.200
T1
G92 E0.0000
G1 E-4.0000 F1800
; feature skirt
; tool H0.200 W0.576
G1 Z0.300 F720
G1 X130.151 Y132.395 F7800
G1 Z0.200 F720
G1 E0.0000 F1800
G92 E0.0000
G1 X130.765 Y131.692 E0.0160 F1500
G1 X131.201 Y131.264 E0.0265
G1 X132.023 Y130.570 E0.0449
G1 X132.540 Y130.200 E0.0558
G1 X133.368 Y129.701 E0.0724
G1 X133.983 Y129.399 E0.0842
G1 X135.184 Y128.932 E0.1063
G1 X136.027 Y128.705 E0.1213
G1 X137.289 Y128.509 E0.1432
G1 X137.905 Y128.462 E0.1538
G1 X161.814 Y128.469 E0.5639
G1 X162.597 Y128.546 E0.5774
G1 X163.933 Y128.812 E0.6008
G1 X164.766 Y129.074 E0.6158
G1 X166.033 Y129.631 E0.6395
G1 X166.789 Y130.067 E0.6545
G1 X167.923 Y130.896 E0.6786
G1 X168.568 Y131.486 E0.6936
G1 X169.477 Y132.519 E0.7172
G1 X169.971 Y133.219 E0.7319
G1 X170.622 Y134.389 E0.7549
G1 X170.940 Y135.126 E0.7686
G1 X171.308 Y136.282 E0.7895
G1 X171.464 Y136.986 E0.8018
G1 X171.595 Y137.999 E0.8193
G1 X171.628 Y138.500 E0.8280
G1 X171.633 Y140.349 E0.8597
G1 X171.324 Y141.909 E0.8870
G1 X170.381 Y144.187 E0.9293
G1 X168.125 Y146.443 E0.9840
G1 X166.566 Y147.088 E1.0129
G1 X166.789 Y147.216 E1.0173
G1 X167.923 Y148.046 E1.0415
G1 X168.568 Y148.636 E1.0564
G1 X169.477 Y149.669 E1.0800
G1 X169.971 Y150.368 E1.0947
G1 X170.622 Y151.539 E1.1177
G1 X170.940 Y152.275 E1.1315
G1 X171.308 Y153.432 E1.1523
G1 X171.464 Y154.136 E1.1647
G1 X171.595 Y155.149 E1.1822
G1 X171.628 Y155.650 E1.1908
G1 X171.633 Y157.499 E1.2225
G1 X171.325 Y159.058 E1.2498
G1 X170.381 Y161.337 E1.2921
G1 X168.126 Y163.592 E1.3468
G1 X166.566 Y164.238 E1.3758
G1 X166.789 Y164.366 E1.3802
G1 X167.923 Y165.196 E1.4043
G1 X168.568 Y165.786 E1.4193
G1 X169.477 Y166.819 E1.4429
G1 X169.971 Y167.518 E1.4576
G1 X170.622 Y168.689 E1.4806
G1 X170.940 Y169.425 E1.4943
G1 X171.308 Y170.582 E1.5151
G1 X171.464 Y171.286 E1.5275
G1 X171.595 Y172.298 E1.5450
G1 X171.628 Y172.800 E1.5536
G1 X171.633 Y174.649 E1.5854
G1 X171.324 Y176.209 E1.6126
G1 X170.381 Y178.487 E1.6549
G1 X168.126 Y180.742 E1.7097
G1 X166.566 Y181.388 E1.7386
G1 X166.789 Y181.516 E1.7430
G1 X167.923 Y182.346 E1.7671
G1 X168.568 Y182.936 E1.7821
G1 X169.477 Y183.969 E1.8057
G1 X169.971 Y184.668 E1.8204
G1 X170.622 Y185.839 E1.8434
G1 X170.940 Y186.575 E1.8572
G1 X171.308 Y187.732 E1.8780
G1 X171.464 Y188.436 E1.8904
G1 X171.595 Y189.448 E1.9079
G1 X171.628 Y189.950 E1.9165
G1 X171.633 Y191.799 E1.9482
G1 X171.324 Y193.359 E1.9755
G1 X170.381 Y195.637 E2.0178
G1 X168.126 Y197.892 E2.0725
G1 X166.566 Y198.538 E2.1014
G1 X166.789 Y198.666 E2.1059
G1 X167.923 Y199.496 E2.1300
G1 X168.568 Y200.086 E2.1450
G1 X169.477 Y201.119 E2.1686
G1 X169.971 Y201.818 E2.1832
G1 X170.622 Y202.989 E2.2062
G1 X170.940 Y203.725 E2.2200
G1 X171.308 Y204.882 E2.2408
G1 X171.464 Y205.586 E2.2532
G1 X171.595 Y206.598 E2.2707
G1 X171.628 Y207.100 E2.2793
G1 X171.633 Y208.949 E2.3110
G1 X171.324 Y210.508 E2.3383
G1 X170.381 Y212.787 E2.3806
G1 X168.126 Y215.042 E2.4353
G1 X166.566 Y215.688 E2.4643
G1 X166.789 Y215.816 E2.4687
G1 X167.923 Y216.646 E2.4928
G1 X168.568 Y217.236 E2.5078
G1 X169.477 Y218.268 E2.5314
G1 X169.971 Y218.968 E2.5461
G1 X170.622 Y220.139 E2.5691
G1 X170.940 Y220.875 E2.5828
G1 X171.308 Y222.032 E2.6037
G1 X171.464 Y222.736 E2.6160
G1 X171.595 Y223.748 E2.6335
G1 X171.628 Y224.250 E2.6422
G1 X171.633 Y226.098 E2.6739
G1 X171.324 Y227.658 E2.7012
G1 X170.381 Y229.937 E2.7435
G1 X168.126 Y232.192 E2.7982
G1 X165.842 Y233.138 E2.8406
G1 X164.348 Y233.430 E2.8667
G1 X161.330 Y235.258 E2.9272
G1 X161.196 Y235.474 E2.9316
G1 X160.682 Y236.214 E2.9470
G1 X160.441 Y236.527 E2.9538
G1 X159.813 Y237.264 E2.9704
G1 X159.518 Y237.576 E2.9778
G1 X158.793 Y238.262 E2.9949
G1 X158.494 Y238.518 E3.0017
G1 X157.814 Y239.046 E3.0164
G1 X157.497 Y239.268 E3.0231
G1 X156.703 Y239.769 E3.0392
G1 X156.372 Y239.957 E3.0457
G1 X155.625 Y240.335 E3.0601
G1 X155.301 Y240.481 E3.0662
G1 X154.522 Y240.792 E3.0806
G1 X154.160 Y240.917 E3.0871
G1 X153.259 Y241.180 E3.1032
G1 X152.885 Y241.270 E3.1098
G1 X152.045 Y241.430 E3.1245
G1 X151.663 Y241.484 E3.1311
G1 X150.728 Y241.570 E3.1472
G1 X150.347 Y241.587 E3.1538
G1 X149.509 Y241.585 E3.1681
G1 X149.154 Y241.568 E3.1742
G1 X148.319 Y241.491 E3.1886
G1 X147.941 Y241.438 E3.1952
G1 X147.018 Y241.264 E3.2113
G1 X146.644 Y241.174 E3.2179
G1 X145.818 Y240.934 E3.2326
G1 X145.444 Y240.805 E3.2394
G1 X144.517 Y240.433 E3.2566
G1 X144.127 Y240.251 E3.2639
G1 X143.279 Y239.800 E3.2804
G1 X142.953 Y239.606 E3.2869
G1 X142.236 Y239.133 E3.3017
G1 X141.915 Y238.897 E3.3085
G1 X141.153 Y238.277 E3.3254
G1 X140.859 Y238.012 E3.3321
G1 X140.206 Y237.364 E3.3479
G1 X139.870 Y236.986 E3.3566
G1 X138.971 Y235.835 E3.3816
G1 X138.642 Y235.333 E3.3919
G1 X137.792 Y235.332 E3.4065
G1 X137.183 Y235.285 E3.4170
G1 X136.260 Y235.141 E3.4330
G1 X135.676 Y235.005 E3.4433
G1 X134.738 Y234.712 E3.4602
G1 X134.188 Y234.494 E3.4703
G1 X133.269 Y234.048 E3.4878
G1 X132.593 Y233.634 E3.5015
G1 X131.513 Y232.815 E3.5247
G1 X130.998 Y232.349 E3.5366
G1 X130.418 Y231.725 E3.5512
G1 X130.069 Y231.293 E3.5608
G1 X129.438 Y230.390 E3.5797
G1 X129.052 Y229.704 E3.5932
G1 X128.530 Y228.516 E3.6154
G1 X128.285 Y227.767 E3.6289
G1 X128.024 Y226.584 E3.6497
G1 X127.930 Y225.815 E3.6630
G1 X127.895 Y224.405 E3.6872
G1 X127.929 Y223.776 E3.6980
G1 X128.067 Y222.739 E3.7160
G1 X128.191 Y222.152 E3.7263
G1 X128.412 Y221.389 E3.7399
G1 X128.550 Y220.992 E3.7471
G1 X128.836 Y220.291 E3.7601
G1 X129.124 Y219.720 E3.7710
G1 X129.745 Y218.699 E3.7916
G1 X130.151 Y218.144 E3.8034
G1 X130.765 Y217.441 E3.8194
G1 X131.201 Y217.013 E3.8298
G1 X132.023 Y216.320 E3.8483
G1 X132.205 Y216.190 E3.8521
G1 X131.513 Y215.665 E3.8670
G1 X130.998 Y215.199 E3.8789
G1 X130.418 Y214.575 E3.8935
G1 X130.069 Y214.143 E3.9031
G1 X129.438 Y213.241 E3.9220
G1 X129.052 Y212.554 E3.9355
G1 X128.530 Y211.366 E3.9577
G1 X128.285 Y210.617 E3.9713
G1 X128.024 Y209.434 E3.9920
G1 X127.930 Y208.666 E4.0053
G1 X127.895 Y207.255 E4.0295
G1 X127.929 Y206.626 E4.0403
G1 X128.067 Y205.589 E4.0583
G1 X128.191 Y205.002 E4.0686
G1 X128.412 Y204.239 E4.0822
G1 X128.550 Y203.842 E4.0894
G1 X128.836 Y203.142 E4.1024
G1 X129.124 Y202.571 E4.1134
G1 X129.745 Y201.549 E4.1339
G1 X130.151 Y200.994 E4.1457
G1 X130.765 Y200.291 E4.1617
G1 X131.201 Y199.863 E4.1722
G1 X132.023 Y199.170 E4.1906
G1 X132.205 Y199.040 E4.1944
G1 X131.513 Y198.515 E4.2093
G1 X130.998 Y198.049 E4.2213
G1 X130.418 Y197.425 E4.2359
G1 X130.069 Y196.994 E4.2454
G1 X129.438 Y196.091 E4.2643
G1 X129.052 Y195.404 E4.2778
G1 X128.530 Y194.216 E4.3001
G1 X128.285 Y193.467 E4.3136
G1 X128.024 Y192.284 E4.3344
G1 X127.930 Y191.516 E4.3476
G1 X127.895 Y190.105 E4.3718
G1 X127.929 Y189.476 E4.3827
G1 X128.067 Y188.440 E4.4006
G1 X128.191 Y187.852 E4.4109
G1 X128.412 Y187.089 E4.4245
G1 X128.550 Y186.692 E4.4317
G1 X128.836 Y185.992 E4.4447
G1 X129.124 Y185.421 E4.4557
G1 X129.745 Y184.399 E4.4762
G1 X130.151 Y183.845 E4.4880
G1 X130.765 Y183.141 E4.5040
G1 X131.201 Y182.714 E4.5145
G1 X132.023 Y182.020 E4.5329
G1 X132.205 Y181.890 E4.5368
G1 X131.513 Y181.365 E4.5517
G1 X130.998 Y180.899 E4.5636
G1 X130.418 Y180.275 E4.5782
G1 X130.069 Y179.844 E4.5877
G1 X129.438 Y178.941 E4.6066
G1 X129.052 Y178.255 E4.6201
G1 X128.530 Y177.066 E4.6424
G1 X128.285 Y176.317 E4.6559
G1 X128.024 Y175.134 E4.6767
G1 X127.930 Y174.366 E4.6900
G1 X127.895 Y172.956 E4.7142
G1 X127.929 Y172.326 E4.7250
G1 X128.067 Y171.290 E4.7429
G1 X128.191 Y170.703 E4.7532
G1 X128.412 Y169.939 E4.7668
G1 X128.550 Y169.542 E4.7740
G1 X128.836 Y168.842 E4.7870
G1 X129.124 Y168.271 E4.7980
G1 X129.745 Y167.249 E4.8185
G1 X130.151 Y166.695 E4.8303
G1 X130.765 Y165.992 E4.8463
G1 X131.201 Y165.564 E4.8568
G1 X132.023 Y164.870 E4.8752
G1 X132.205 Y164.740 E4.8791
G1 X131.513 Y164.215 E4.8940
G1 X130.998 Y163.749 E4.9059
G1 X130.418 Y163.126 E4.9205
G1 X130.069 Y162.694 E4.9300
G1 X129.438 Y161.791 E4.9489
G1 X129.052 Y161.105 E4.9624
G1 X128.530 Y159.916 E4.9847
G1 X128.285 Y159.167 E4.9982
G1 X128.024 Y157.984 E5.0190
G1 X127.930 Y157.216 E5.0323
G1 X127.895 Y155.806 E5.0565
G1 X127.929 Y155.176 E5.0673
G1 X128.067 Y154.140 E5.0852
G1 X128.191 Y153.553 E5.0955
G1 X128.412 Y152.789 E5.1092
G1 X128.550 Y152.392 E5.1164
G1 X128.836 Y151.692 E5.1293
G1 X129.124 Y151.121 E5.1403
G1 X129.745 Y150.099 E5.1608
G1 X130.151 Y149.545 E5.1726
G1 X130.765 Y148.842 E5.1886
G1 X131.201 Y148.414 E5.1991
G1 X132.023 Y147.720 E5.2176
G1 X132.205 Y147.590 E5.2214
G1 X131.513 Y147.065 E5.2363
G1 X130.998 Y146.599 E5.2482
G1 X130.418 Y145.976 E5.2628
G1 X130.069 Y145.544 E5.2723
G1 X129.438 Y144.641 E5.2912
G1 X129.052 Y143.955 E5.3047
G1 X128.530 Y142.766 E5.3270
G1 X128.285 Y142.017 E5.3405
G1 X128.024 Y140.834 E5.3613
G1 X127.930 Y140.066 E5.3746
G1 X127.895 Y138.656 E5.3988
G1 X127.929 Y138.026 E5.4096
G1 X128.067 Y136.990 E5.4275
