; G-Code generated by Simplify3D(R) Version 4.1.1
; Apr 21, 2019 at 7:07:30 PM
; Settings Summary
;   processName,Process1
;   applyToModels,Wire Clip
;   profileName,BCN3D Technologies Sigma (modified)
;   profileVersion,2019-04-18 01:31:47
;   baseProfile,
;   printMaterial,PETG
;   printQuality,Medium
;   printExtruders,Right Extruder Only
;   extruderName,Right Extruder,Left Extruder
;   extruderToolheadNumber,1,0
;   extruderDiameter,0.4,0.4
;   extruderAutoWidth,1,1
;   extruderWidth,0.48,0.48
;   extrusionMultiplier,0.95,0.95
;   extruderUseRetract,1,1
;   extruderRetractionDistance,4,6
;   extruderExtraRestartDistance,0,0
;   extruderRetractionZLift,0.3,0.3
;   extruderRetractionSpeed,1800,1800
;   extruderUseCoasting,0,0
;   extruderCoastingDistance,0.2,0.2
;   extruderUseWipe,1,1
;   extruderWipeDistance,3,3
;   primaryExtruder,0
;   layerHeight,0.2
;   topSolidLayers,3
;   bottomSolidLayers,3
;   perimeterOutlines,3
;   printPerimetersInsideOut,1
;   startPointOption,2
;   startPointOriginX,0
;   startPointOriginY,0
;   sequentialIslands,0
;   spiralVaseMode,0
;   firstLayerHeightPercentage,100
;   firstLayerWidthPercentage,120
;   firstLayerUnderspeed,0.5
;   useRaft,0
;   raftExtruder,0
;   raftTopLayers,2
;   raftBaseLayers,1
;   raftOffset,3
;   raftSeparationDistance,0.28
;   raftTopInfill,100
;   aboveRaftSpeedMultiplier,0.3
;   useSkirt,1
;   skirtExtruder,0
;   skirtLayers,1
;   skirtOutlines,4
;   skirtOffset,6
;   usePrimePillar,0
;   primePillarExtruder,999
;   primePillarWidth,15
;   primePillarLocation,7
;   primePillarSpeedMultiplier,0.4
;   useOozeShield,0
;   oozeShieldExtruder,999
;   oozeShieldOffset,3
;   oozeShieldOutlines,1
;   oozeShieldSidewallShape,1
;   oozeShieldSidewallAngle,30
;   oozeShieldSpeedMultiplier,0.5
;   infillExtruder,0
;   internalInfillPattern,Full Honeycomb
;   externalInfillPattern,Rectilinear
;   infillPercentage,15
;   outlineOverlapPercentage,20
;   infillExtrusionWidthPercentage,100
;   minInfillLength,5
;   infillLayerInterval,1
;   internalInfillAngles,0,120,-120
;   overlapInternalInfillAngles,0
;   externalInfillAngles,45,-45
;   generateSupport,1
;   supportExtruder,0
;   supportInfillPercentage,15
;   supportExtraInflation,0
;   supportBaseLayers,1
;   denseSupportExtruder,0
;   denseSupportLayers,2
;   denseSupportInfillPercentage,70
;   supportLayerInterval,1
;   supportHorizontalPartOffset,0.3
;   supportUpperSeparationLayers,2
;   supportLowerSeparationLayers,2
;   supportType,1
;   supportGridSpacing,1
;   maxOverhangAngle,45
;   supportAngles,0
;   temperatureName,Right Extruder,Left Extruder,Heated Bed
;   temperatureNumber,1,0,0
;   temperatureSetpointCount,2,1,1
;   temperatureSetpointLayers,1,2,1,1
;   temperatureSetpointTemperatures,260,255,0,80
;   temperatureStabilizeAtStartup,1,0,1
;   temperatureHeatedBed,0,0,1
;   fanLayers,1,2
;   fanSpeeds,0,80
;   blipFanToFullPower,0
;   adjustSpeedForCooling,1
;   minSpeedLayerTime,10
;   minCoolingSpeedSlowdown,30
;   increaseFanForCooling,1
;   minFanLayerTime,15
;   maxCoolingFanSpeed,93
;   increaseFanForBridging,1
;   bridgingFanSpeed,100
;   use5D,1
;   relativeEdistances,0
;   allowEaxisZeroing,1
;   independentExtruderAxes,0
;   includeM10123,0
;   stickySupport,1
;   applyToolheadOffsets,0
;   gcodeXoffset,0
;   gcodeYoffset,0
;   gcodeZoffset,0
;   overrideMachineDefinition,1
;   machineTypeOverride,0
;   strokeXoverride,210
;   strokeYoverride,297
;   strokeZoverride,210
;   originOffsetXoverride,0
;   originOffsetYoverride,0
;   originOffsetZoverride,0
;   homeXdirOverride,-1
;   homeYdirOverride,-1
;   homeZdirOverride,-1
;   flipXoverride,1
;   flipYoverride,-1
;   flipZoverride,1
;   toolheadOffsets,0,0|-40,0|0,0|0,0|0,0|0,0
;   overrideFirmwareConfiguration,1
;   firmwareTypeOverride,RepRap (Marlin/Repetier/Sprinter)
;   GPXconfigOverride,r2
;   baudRateOverride,250000
;   overridePrinterModels,1
;   printerModelsOverride
;   startingGcode,;start starting gcode,,;GLED: 11 - RLED: 12 - BLED: 13,M42 P11 S0		;purple light during startup,M42 P12 S255	                        ,M42 P13 S255,,M280 P0 S160 		;BLTouch alarm release,G4 P100		;delay for BLTouch,,T0		;switch to tool 0 for homing,,G28		;home axes,,M4 P100		;reset BLTouch,M28 P0 S160,G29		;bed leveling (bilinear),;M420 S1		;bed leveling (UBL),;G29 L0,,G1 X-48 F1800		;move left extruder over bucket,,G92 X254.5		;switch to tool 1,T1,,G1 E4 F48		;initial purge,G92 E0,,;G92 X-48		;switch back to T0 before starting print,;T0,,M42 P11 S255		;white light for easier inspection during printing,M42 P12 S255,M42 P13 S255,,;end starting gcode
;   layerChangeGcode,
;   retractionGcode,
;   toolChangeGcode,
;   endingGcode,;start ending gcode,,M104 S0 T0			;left extruder heater off,M104 S0 T1			;right extruder heater off,M140 S0			;bed off,,M106 P0 S0			;turn layer fans off,M106 P1 S0,,G28 X Y			;Home X and Y-axes,M84			;steppers off,,M42 P11 S255			;completed print - green light,M42 P12 S0,M42 P13 S0,,;end ending gcode
;   exportFileFormat,gcode
;   celebration,0
;   celebrationSong,Random Song
;   postProcessing,{TOOL1REPLACE "M106 S" "M106 P1 S"}
;   defaultSpeed,3000
;   outlineUnderspeed,0.65
;   solidInfillUnderspeed,0.85
;   supportUnderspeed,0.9
;   rapidXYspeed,7800
;   rapidZspeed,720
;   minBridgingArea,50
;   bridgingExtraInflation,0
;   bridgingExtrusionMultiplier,0.75
;   bridgingSpeedMultiplier,1.1
;   useFixedBridgingAngle,0
;   fixedBridgingAngle,0
;   applyBridgingToPerimeters,0
;   filamentDiameters,2.85|2.85|2.85|2.85|2.85|2.85
;   filamentPricesPerKg,23.15|23.95|23.95|23.95|23.95|23.95
;   filamentDensities,1.25|1.25|1.25|1.25|1.25|1.25
;   useMinPrintHeight,0
;   minPrintHeight,0
;   useMaxPrintHeight,0
;   maxPrintHeight,0
;   useDiaphragm,0
;   diaphragmLayerInterval,20
;   robustSlicing,1
;   mergeAllIntoSolid,0
;   onlyRetractWhenCrossingOutline,0
;   retractBetweenLayers,1
;   useRetractionMinTravel,0
;   retractionMinTravel,3
;   retractWhileWiping,1
;   onlyWipeOutlines,1
;   avoidCrossingOutline,0
;   maxMovementDetourFactor,3
;   toolChangeRetractionDistance,6
;   toolChangeExtraRestartDistance,7
;   toolChangeRetractionSpeed,600
;   externalThinWallType,0
;   internalThinWallType,2
;   thinWallAllowedOverlapPercentage,10
;   singleExtrusionMinLength,1
;   singleExtrusionMinPrintingWidthPercentage,50
;   singleExtrusionMaxPrintingWidthPercentage,200
;   singleExtrusionEndpointExtension,0.2
;   horizontalSizeCompensation,0
G90
M82
M106 S70
M140 S80
M190 S80
M104 S0 T0
M104 S260 T1
M109 S260 T1
;start starting gcode
;GLED: 11 - RLED: 12 - BLED: 13
M42 P11 S0		;purple light during startup
M42 P12 S255	                        
M42 P13 S255
M280 P0 S160 		;BLTouch alarm release
G4 P100		;delay for BLTouch
T0		;switch to tool 0 for homing
G28		;home axes
M4 P100		;reset BLTouch
M28 P0 S160
G29		;bed leveling (bilinear)
;M420 S1		;bed leveling (UBL)
;G29 L0
G1 X-48 F1800		;move left extruder over bucket
G92 X254.5		;switch to tool 1
T1
G1 E4 F48		;initial purge
G92 E0
;G92 X-48		;switch back to T0 before starting print
;T0
M42 P11 S255		;white light for easier inspection during printing
M42 P12 S255
M42 P13 S255
;end starting gcode
; process Process1
; layer 1, Z = 0.200
T1
G92 E0.0000
G1 E-4.0000 F1800
; feature skirt
; tool H0.200 W0.576
G1 Z0.300 F720
G1 X36.938 Y208.572 F7800
G1 Z0.200 F720
G1 E0.0000 F1800
G92 E0.0000
G1 X38.200 Y208.376 E0.0219 F1500
G1 X38.816 Y208.328 E0.0325
G1 X62.725 Y208.335 E0.4427
G1 X63.508 Y208.412 E0.4562
G1 X64.844 Y208.678 E0.4795
G1 X65.677 Y208.941 E0.4945
G1 X66.943 Y209.497 E0.5183
G1 X67.700 Y209.933 E0.5332
G1 X68.834 Y210.763 E0.5573
G1 X69.479 Y211.353 E0.5723
G1 X70.388 Y212.386 E0.5959
G1 X70.881 Y213.085 E0.6106
G1 X71.533 Y214.256 E0.6336
G1 X71.851 Y214.992 E0.6474
G1 X72.219 Y216.149 E0.6682
G1 X72.375 Y216.853 E0.6806
G1 X72.505 Y217.865 E0.6981
G1 X72.538 Y218.367 E0.7067
G1 X72.543 Y220.216 E0.7384
G1 X72.235 Y221.776 E0.7657
G1 X71.291 Y224.054 E0.8080
G1 X69.037 Y226.309 E0.8627
G1 X66.753 Y227.255 E0.9051
G1 X65.259 Y227.547 E0.9312
G1 X62.241 Y229.376 E0.9918
G1 X62.106 Y229.591 E0.9961
G1 X61.593 Y230.331 E1.0116
G1 X61.352 Y230.644 E1.0183
G1 X60.724 Y231.381 E1.0350
G1 X60.428 Y231.693 E1.0423
G1 X59.704 Y232.379 E1.0594
G1 X59.405 Y232.635 E1.0662
G1 X58.725 Y233.163 E1.0810
G1 X58.408 Y233.385 E1.0876
G1 X57.614 Y233.886 E1.1037
G1 X57.283 Y234.074 E1.1102
G1 X56.536 Y234.452 E1.1246
G1 X56.212 Y234.598 E1.1307
G1 X55.433 Y234.909 E1.1451
G1 X55.071 Y235.034 E1.1517
G1 X54.169 Y235.297 E1.1678
G1 X53.796 Y235.387 E1.1744
G1 X52.956 Y235.547 E1.1890
G1 X52.573 Y235.601 E1.1957
G1 X51.638 Y235.687 E1.2118
G1 X51.258 Y235.704 E1.2183
G1 X50.420 Y235.702 E1.2327
G1 X50.065 Y235.685 E1.2388
G1 X49.230 Y235.608 E1.2532
G1 X48.852 Y235.555 E1.2597
G1 X47.929 Y235.381 E1.2758
G1 X47.554 Y235.291 E1.2824
G1 X46.729 Y235.051 E1.2972
G1 X46.355 Y234.922 E1.3040
G1 X45.428 Y234.550 E1.3211
G1 X45.038 Y234.368 E1.3285
G1 X44.190 Y233.917 E1.3450
G1 X43.864 Y233.723 E1.3515
G1 X43.147 Y233.250 E1.3662
G1 X42.826 Y233.014 E1.3730
G1 X42.064 Y232.394 E1.3899
G1 X41.769 Y232.129 E1.3967
G1 X41.117 Y231.481 E1.4125
G1 X40.781 Y231.103 E1.4211
G1 X39.882 Y229.952 E1.4462
G1 X39.553 Y229.450 E1.4565
G1 X38.703 Y229.449 E1.4711
G1 X38.094 Y229.402 E1.4815
G1 X37.171 Y229.259 E1.4976
G1 X36.586 Y229.122 E1.5079
G1 X35.649 Y228.829 E1.5247
G1 X35.099 Y228.611 E1.5349
G1 X34.180 Y228.166 E1.5524
G1 X33.503 Y227.751 E1.5660
G1 X32.423 Y226.932 E1.5893
G1 X31.908 Y226.466 E1.6012
G1 X31.329 Y225.842 E1.6158
G1 X30.980 Y225.410 E1.6253
G1 X30.349 Y224.508 E1.6442
G1 X29.963 Y223.821 E1.6577
G1 X29.441 Y222.633 E1.6800
G1 X29.196 Y221.884 E1.6935
G1 X28.934 Y220.701 E1.7143
G1 X28.841 Y219.933 E1.7275
G1 X28.806 Y218.523 E1.7517
G1 X28.840 Y217.893 E1.7626
G1 X28.978 Y216.856 E1.7805
G1 X29.102 Y216.269 E1.7908
G1 X29.323 Y215.506 E1.8044
G1 X29.461 Y215.109 E1.8116
G1 X29.747 Y214.409 E1.8246
G1 X30.034 Y213.838 E1.8356
G1 X30.656 Y212.816 E1.8561
G1 X31.062 Y212.261 E1.8679
G1 X31.676 Y211.558 E1.8839
G1 X32.111 Y211.130 E1.8944
G1 X32.934 Y210.437 E1.9128
G1 X33.450 Y210.067 E1.9237
G1 X34.279 Y209.568 E1.9403
G1 X34.893 Y209.266 E1.9521
G1 X36.095 Y208.798 E1.9742
G1 X36.938 Y208.572 E1.9892
G92 E0.0000
G1 E-4.0000 F1800
G1 Z0.500 F720
G1 X37.057 Y209.136 F7800
G1 Z0.200 F720
G1 E0.0000 F1800
G92 E0.0000
G1 X38.266 Y208.948 E0.0210 F1500
G1 X38.838 Y208.904 E0.0308
G1 X62.697 Y208.911 E0.4401
G1 X63.423 Y208.983 E0.4527
G1 X64.701 Y209.237 E0.4750
G1 X65.474 Y209.481 E0.4889
G1 X66.683 Y210.012 E0.5116
G1 X67.385 Y210.416 E0.5255
G1 X68.469 Y211.209 E0.5485
G1 X69.067 Y211.757 E0.5624
G1 X69.935 Y212.743 E0.5849
G1 X70.393 Y213.392 E0.5986
G1 X71.016 Y214.511 E0.6205
G1 X71.311 Y215.194 E0.6333
G1 X71.662 Y216.299 E0.6532
G1 X71.807 Y216.952 E0.6647
G1 X71.932 Y217.921 E0.6814
G1 X71.962 Y218.387 E0.6894
G1 X71.967 Y220.160 E0.7199
G1 X71.681 Y221.609 E0.7452
G1 X70.803 Y223.728 E0.7846
G1 X68.710 Y225.820 E0.8353
G1 X66.585 Y226.701 E0.8748
G1 X65.125 Y226.987 E0.9003
G1 X65.073 Y226.986 E0.9012
G1 X61.824 Y228.956 E0.9664
G1 X61.625 Y229.275 E0.9728
G1 X61.128 Y229.991 E0.9878
G1 X60.904 Y230.281 E0.9941
G1 X60.296 Y230.996 E1.0102
G1 X60.021 Y231.285 E1.0170
G1 X59.318 Y231.951 E1.0336
G1 X59.040 Y232.189 E1.0399
G1 X58.383 Y232.699 E1.0542
G1 X58.088 Y232.905 E1.0603
G1 X57.318 Y233.392 E1.0760
G1 X57.011 Y233.566 E1.0820
G1 X56.287 Y233.932 E1.0959
G1 X55.986 Y234.068 E1.1016
G1 X55.232 Y234.369 E1.1155
G1 X54.896 Y234.485 E1.1216
G1 X54.021 Y234.740 E1.1373
G1 X53.674 Y234.824 E1.1434
G1 X52.862 Y234.979 E1.1576
G1 X52.507 Y235.029 E1.1637
G1 X51.599 Y235.113 E1.1794
G1 X51.246 Y235.128 E1.1854
G1 X50.435 Y235.126 E1.1994
G1 X50.105 Y235.110 E1.2050
G1 X49.296 Y235.036 E1.2190
G1 X48.945 Y234.987 E1.2250
G1 X48.050 Y234.817 E1.2407
G1 X47.702 Y234.734 E1.2468
G1 X46.903 Y234.502 E1.2611
G1 X46.556 Y234.382 E1.2674
G1 X45.657 Y234.021 E1.2840
G1 X45.295 Y233.853 E1.2908
G1 X44.472 Y233.415 E1.3068
G1 X44.170 Y233.235 E1.3129
G1 X43.477 Y232.777 E1.3271
G1 X43.178 Y232.558 E1.3335
G1 X42.438 Y231.956 E1.3498
G1 X42.165 Y231.710 E1.3561
G1 X41.535 Y231.085 E1.3714
G1 X41.224 Y230.735 E1.3794
G1 X40.351 Y229.617 E1.4037
G1 X40.015 Y229.105 E1.4142
G1 X39.890 Y228.875 E1.4187
G1 X38.726 Y228.873 E1.4387
G1 X38.161 Y228.829 E1.4484
G1 X37.281 Y228.693 E1.4637
G1 X36.738 Y228.566 E1.4733
G1 X35.841 Y228.285 E1.4894
G1 X35.331 Y228.083 E1.4988
G1 X34.456 Y227.660 E1.5155
G1 X33.829 Y227.275 E1.5281
G1 X32.791 Y226.488 E1.5504
G1 X32.313 Y226.055 E1.5615
G1 X31.765 Y225.465 E1.5753
G1 X31.441 Y225.064 E1.5842
G1 X30.837 Y224.201 E1.6022
G1 X30.479 Y223.564 E1.6148
G1 X29.979 Y222.427 E1.6361
G1 X29.752 Y221.732 E1.6486
G1 X29.503 Y220.604 E1.6684
G1 X29.416 Y219.891 E1.6808
G1 X29.382 Y218.531 E1.7041
G1 X29.414 Y217.947 E1.7141
G1 X29.546 Y216.954 E1.7313
G1 X29.661 Y216.409 E1.7409
G1 X29.872 Y215.680 E1.7539
G1 X30.000 Y215.312 E1.7606
G1 X30.271 Y214.647 E1.7729
G1 X30.538 Y214.117 E1.7831
G1 X31.135 Y213.137 E1.8028
G1 X31.512 Y212.622 E1.8137
G1 X32.096 Y211.954 E1.8289
G1 X32.500 Y211.557 E1.8386
G1 X33.287 Y210.892 E1.8563
G1 X33.767 Y210.549 E1.8664
G1 X34.555 Y210.074 E1.8822
G1 X35.125 Y209.794 E1.8931
G1 X36.275 Y209.346 E1.9143
G1 X37.057 Y209.136 E1.9282
G92 E0.0000
G1 E-4.0000 F1800
G1 Z0.500 F720
G1 X37.176 Y209.700 F7800
G1 Z0.200 F720
G1 E0.0000 F1800
G92 E0.0000
G1 X38.333 Y209.521 E0.0201 F1500
G1 X38.860 Y209.480 E0.0292
G1 X62.668 Y209.487 E0.4376
G1 X63.338 Y209.553 E0.4491
G1 X64.557 Y209.796 E0.4705
G1 X65.271 Y210.021 E0.4833
G1 X66.422 Y210.527 E0.5049
G1 X67.070 Y210.900 E0.5177
G1 X68.103 Y211.656 E0.5397
G1 X68.656 Y212.161 E0.5525
G1 X69.482 Y213.100 E0.5740
G1 X69.905 Y213.699 E0.5865
G1 X70.498 Y214.766 E0.6075
G1 X70.771 Y215.396 E0.6193
G1 X71.105 Y216.449 E0.6382
G1 X71.239 Y217.052 E0.6488
G1 X71.358 Y217.977 E0.6648
G1 X71.386 Y218.406 E0.6722
G1 X71.391 Y220.105 E0.7013
G1 X71.127 Y221.441 E0.7247
G1 X70.315 Y223.402 E0.7611
G1 X68.384 Y225.332 E0.8079
G1 X66.418 Y226.146 E0.8444
G1 X65.071 Y226.410 E0.8680
G1 X64.734 Y226.408 E0.8738
G1 X64.647 Y226.571 E0.8769
G1 X61.427 Y228.521 E0.9415
G1 X61.406 Y228.522 E0.9419
G1 X61.327 Y228.664 E0.9447
G1 X61.144 Y228.958 E0.9506
G1 X60.663 Y229.650 E0.9651
G1 X60.456 Y229.919 E0.9709
G1 X59.867 Y230.611 E0.9865
G1 X59.614 Y230.877 E0.9928
G1 X58.932 Y231.523 E1.0089
G1 X58.676 Y231.742 E1.0147
G1 X58.041 Y232.235 E1.0285
G1 X57.769 Y232.426 E1.0342
G1 X57.022 Y232.898 E1.0493
G1 X56.739 Y233.058 E1.0549
G1 X56.039 Y233.412 E1.0684
G1 X55.761 Y233.538 E1.0736
G1 X55.031 Y233.829 E1.0871
G1 X54.722 Y233.936 E1.0927
G1 X53.873 Y234.184 E1.1079
G1 X53.553 Y234.261 E1.1135
G1 X52.767 Y234.410 E1.1272
G1 X52.440 Y234.456 E1.1329
G1 X51.560 Y234.538 E1.1481
G1 X51.234 Y234.552 E1.1537
G1 X50.449 Y234.550 E1.1671
G1 X50.145 Y234.535 E1.1724
G1 X49.363 Y234.464 E1.1858
G1 X49.039 Y234.418 E1.1914
G1 X48.170 Y234.254 E1.2066
G1 X47.850 Y234.177 E1.2123
G1 X47.078 Y233.953 E1.2261
G1 X46.758 Y233.842 E1.2319
G1 X45.886 Y233.492 E1.2480
G1 X45.552 Y233.337 E1.2543
G1 X44.755 Y232.913 E1.2698
G1 X44.476 Y232.747 E1.2754
G1 X43.806 Y232.305 E1.2891
G1 X43.531 Y232.103 E1.2950
G1 X42.813 Y231.518 E1.3109
G1 X42.561 Y231.292 E1.3167
G1 X41.954 Y230.689 E1.3313
G1 X41.667 Y230.366 E1.3388
G1 X40.819 Y229.281 E1.3624
G1 X40.510 Y228.809 E1.3721
G1 X40.232 Y228.300 E1.3820
G1 X38.749 Y228.297 E1.4075
G1 X38.227 Y228.257 E1.4164
G1 X37.390 Y228.127 E1.4310
G1 X36.890 Y228.010 E1.4398
G1 X36.034 Y227.742 E1.4552
G1 X35.563 Y227.555 E1.4639
G1 X34.733 Y227.154 E1.4797
G1 X34.154 Y226.799 E1.4913
G1 X33.159 Y226.044 E1.5128
G1 X32.718 Y225.645 E1.5230
G1 X32.200 Y225.087 E1.5360
G1 X31.901 Y224.718 E1.5442
G1 X31.325 Y223.894 E1.5614
G1 X30.995 Y223.306 E1.5730
G1 X30.518 Y222.221 E1.5933
G1 X30.308 Y221.580 E1.6049
G1 X30.071 Y220.507 E1.6237
G1 X29.991 Y219.849 E1.6351
G1 X29.959 Y218.539 E1.6576
G1 X29.988 Y218.000 E1.6668
G1 X30.114 Y217.051 E1.6833
G1 X30.220 Y216.548 E1.6921
